!!!SOCIAL_FUNCTION:	war songs
!!!PDT:	1932
!!!OTL: No_120_Pawakone's_War_Song_(b).krn
!!!REG: Wisconsin
!!!LANG: Non-Tone
!!!LING_GROUP: Algonquin
**kern
*staff1
=1-
*clefF4
*k[f#c#g#d#a#]
*M2/4
4r
8r
16r
16d#\
=2
8d#\L
16d#\L
16c#\JJ
8.d#\L
16d#\Jk
=3||
*M3/4
8.d#\L
16d#\Jk
4d#\
8.B\L
16d#\Jk
=4||
*M2/4
8d#\L
16d#\L
16c#\JJ
8.B\L
16G#\Jk
=5
8.G#\L
16G#\Jk
4G#\
=6||
*M5/8
4G#\
8B\L
8A#\
8G#\J
=7||
*M3/4
4..G#\
16G#\
4G#\
=8
4G#\
4G#\
8G#\
8r
=9||
*M2/4
4B\
8.d#\L
16B\Jk
=10
8.B\L
16B\Jk
16A#\LL
16G#\
16G#\JJ
32r
32A#\
=11
8A#\L
16B\L
16A#\JJ
8.G#\L
16F#\Jk
=12||
*M3/4
8.D#\L
16D#\Jk
4D#\
8BB/
16r
16D#\
=13||
*M2/4
8D#\L
16D#\L
16D#\JJ
8.BB/L
16GG#/Jk
=14
2GG#/
=15
2GG#/
==
*-
